src/icons/slack.svg

<?xml version="1.0" encoding="UTF-8"?>
<svg xmlns="http://www.w3.org/2000/svg" xmlns:xlink="http://www.w3.org/1999/xlink" width="32" height="32" viewBox="0 0 32 32" version="1.1">
<g id="surface1">
<path style="fill-rule:evenodd;fill:rgb(87.843138%,11.764706%,35.294119%);fill-opacity:1;stroke-width:1.8518;stroke-linecap:round;stroke-linejoin:round;stroke:rgb(87.843138%,11.764706%,35.294119%);stroke-opacity:1;stroke-miterlimit:4;" d="M 9.724365 21.133789 C 9.724365 19.245361 11.1521 17.726318 12.924316 17.726318 C 14.700684 17.726318 16.124268 19.245361 16.124268 21.133789 L 16.124268 29.517578 C 16.124268 31.406006 14.700684 32.925049 12.924316 32.925049 C 11.1521 32.925049 9.724365 31.406006 9.724365 29.517578 Z M 9.724365 21.133789 " transform="matrix(0.941176,0,0,0.941176,0,0)"/>
<path style="fill-rule:evenodd;fill:rgb(92.54902%,69.803923%,17.647059%);fill-opacity:1;stroke-width:1.8518;stroke-linecap:round;stroke-linejoin:round;stroke:rgb(92.54902%,69.803923%,17.647059%);stroke-opacity:1;stroke-miterlimit:4;" d="M 21.133789 24.126221 C 19.245361 24.126221 17.726318 22.698486 17.726318 20.92627 C 17.726318 19.154053 19.245361 17.726318 21.133789 17.726318 L 29.517578 17.726318 C 31.406006 17.726318 32.925049 19.154053 32.925049 20.92627 C 32.925049 22.698486 31.406006 24.126221 29.517578 24.126221 Z M 21.133789 24.126221 " transform="matrix(0.941176,0,0,0.941176,0,0)"/>
<path style="fill-rule:evenodd;fill:rgb(18.431373%,71.372551%,48.627451%);fill-opacity:1;stroke-width:1.8518;stroke-linecap:round;stroke-linejoin:round;stroke:rgb(18.431373%,71.372551%,48.627451%);stroke-opacity:1;stroke-miterlimit:4;" d="M 17.726318 4.333008 C 17.726318 2.44458 19.154053 0.925537 20.92627 0.925537 C 22.698486 0.925537 24.126221 2.44458 24.126221 4.333008 L 24.126221 12.720947 C 24.126221 14.605225 22.698486 16.124268 20.92627 16.124268 C 19.154053 16.124268 17.726318 14.605225 17.726318 12.720947 Z M 17.726318 4.333008 " transform="matrix(0.941176,0,0,0.941176,0,0)"/>
<path style="fill-rule:evenodd;fill:rgb(21.176471%,77.254903%,94.509804%);fill-opacity:1;stroke-width:1.8518;stroke-linecap:round;stroke-linejoin:round;stroke:rgb(21.176471%,77.254903%,94.509804%);stroke-opacity:1;stroke-miterlimit:4;" d="M 21.133007 24.124268 C 19.244579 24.124268 17.725536 22.700684 17.725536 20.924316 C 17.725536 19.1521 19.244579 17.724365 21.133007 17.724365 L 29.520947 17.724365 C 31.405224 17.724365 32.924267 19.1521 32.924267 20.924316 C 32.924267 22.700684 31.405224 24.124268 29.520947 24.124268 Z M 21.133007 24.124268 " transform="matrix(0.941176,0,0,0.941176,-15.811764,-7.529412)"/>
<path style="fill-rule:evenodd;fill:rgb(92.54902%,69.803923%,17.647059%);fill-opacity:1;stroke-width:1.8518;stroke-linecap:round;stroke-linejoin:miter;stroke:rgb(92.54902%,69.803923%,17.647059%);stroke-opacity:1;stroke-miterlimit:4;" d="M 17.726318 29.725098 C 17.726318 31.493164 19.158203 32.925049 20.92627 32.925049 C 22.694336 32.925049 24.126221 31.493164 24.126221 29.725098 C 24.126221 27.952881 22.698486 26.525146 20.92627 26.525146 L 17.726318 26.525146 Z M 17.726318 29.725098 " transform="matrix(0.941176,0,0,0.941176,0,0)"/>
<path style="fill-rule:evenodd;fill:rgb(18.431373%,71.372551%,48.627451%);fill-opacity:1;stroke-width:1.8518;stroke-linecap:round;stroke-linejoin:miter;stroke:rgb(18.431373%,71.372551%,48.627451%);stroke-opacity:1;stroke-miterlimit:4;" d="M 29.725098 16.124268 L 26.525146 16.124268 L 26.525146 12.924316 C 26.525146 11.1521 27.952881 9.724365 29.725098 9.724365 C 31.497314 9.724365 32.925049 11.1521 32.925049 12.924316 C 32.925049 14.700684 31.497314 16.124268 29.725098 16.124268 Z M 29.725098 16.124268 " transform="matrix(0.941176,0,0,0.941176,0,0)"/>
<path style="fill-rule:evenodd;fill:rgb(87.843138%,11.764706%,35.294119%);fill-opacity:1;stroke-width:1.8518;stroke-linecap:round;stroke-linejoin:miter;stroke:rgb(87.843138%,11.764706%,35.294119%);stroke-opacity:1;stroke-miterlimit:4;" d="M 4.125488 17.726318 L 7.325439 17.726318 L 7.325439 20.92627 C 7.325439 22.698486 5.897705 24.126221 4.125488 24.126221 C 2.353271 24.126221 0.925537 22.698486 0.925537 20.92627 C 0.925537 19.154053 2.353271 17.726318 4.125488 17.726318 Z M 4.125488 17.726318 " transform="matrix(0.941176,0,0,0.941176,0,0)"/>
<path style="fill-rule:evenodd;fill:rgb(21.176471%,77.254903%,94.509804%);fill-opacity:1;stroke-width:1.8518;stroke-linecap:round;stroke-linejoin:miter;stroke:rgb(21.176471%,77.254903%,94.509804%);stroke-opacity:1;stroke-miterlimit:4;" d="M 16.124268 4.125488 L 16.124268 7.325439 L 12.924316 7.325439 C 11.1521 7.325439 9.724365 5.897705 9.724365 4.125488 C 9.724365 2.353271 11.1521 0.925537 12.924316 0.925537 C 14.700684 0.925537 16.124268 2.353271 16.124268 4.125488 Z M 16.124268 4.125488 " transform="matrix(0.941176,0,0,0.941176,0,0)"/>
</g>
</svg>

<svg role="img" viewBox="0 0 32 32" xmlns="http://www.w3.org/2000/svg"><path d="M9.724 21.134c0-1.889 1.428-3.408 3.2-3.408 1.777 0 3.2 1.52 3.2 3.408v8.384c0 1.888-1.423 3.407-3.2 3.407-1.772 0-3.2-1.519-3.2-3.407Zm0 0" style="fill-rule:evenodd;fill:rgb(87.843138%,11.764706%,35.294119%);fill-opacity:1;stroke-width:1.8518;stroke-linecap:round;stroke-linejoin:round;stroke:rgb(87.843138%,11.764706%,35.294119%);stroke-opacity:1;stroke-miterlimit:4" transform="scale(.94118)"/><path d="M21.134 24.126c-1.889 0-3.408-1.428-3.408-3.2 0-1.772 1.52-3.2 3.408-3.2h8.384c1.888 0 3.407 1.428 3.407 3.2 0 1.772-1.519 3.2-3.407 3.2Zm0 0" style="fill-rule:evenodd;fill:rgb(92.54902%,69.803923%,17.647059%);fill-opacity:1;stroke-width:1.8518;stroke-linecap:round;stroke-linejoin:round;stroke:rgb(92.54902%,69.803923%,17.647059%);stroke-opacity:1;stroke-miterlimit:4" transform="scale(.94118)"/><path d="M17.726 4.333c0-1.888 1.428-3.407 3.2-3.407 1.772 0 3.2 1.519 3.2 3.407v8.388c0 1.884-1.428 3.403-3.2 3.403-1.772 0-3.2-1.519-3.2-3.403Zm0 0" style="fill-rule:evenodd;fill:rgb(18.431373%,71.372551%,48.627451%);fill-opacity:1;stroke-width:1.8518;stroke-linecap:round;stroke-linejoin:round;stroke:rgb(18.431373%,71.372551%,48.627451%);stroke-opacity:1;stroke-miterlimit:4" transform="scale(.94118)"/><path d="M21.133 24.124c-1.888 0-3.407-1.423-3.407-3.2 0-1.772 1.519-3.2 3.407-3.2h8.388c1.884 0 3.403 1.428 3.403 3.2 0 1.777-1.519 3.2-3.403 3.2Zm0 0" style="fill-rule:evenodd;fill:rgb(21.176471%,77.254903%,94.509804%);fill-opacity:1;stroke-width:1.8518;stroke-linecap:round;stroke-linejoin:round;stroke:rgb(21.176471%,77.254903%,94.509804%);stroke-opacity:1;stroke-miterlimit:4" transform="translate(-15.812 -7.53)scale(.94118)"/><path d="M17.726 29.725a3.2 3.2 0 1 0 6.4 0c0-1.772-1.428-3.2-3.2-3.2h-3.2Zm0 0" style="fill-rule:evenodd;fill:rgb(92.54902%,69.803923%,17.647059%);fill-opacity:1;stroke-width:1.8518;stroke-linecap:round;stroke-linejoin:miter;stroke:rgb(92.54902%,69.803923%,17.647059%);stroke-opacity:1;stroke-miterlimit:4" transform="scale(.94118)"/><path d="M29.725 16.124h-3.2v-3.2c0-1.772 1.428-3.2 3.2-3.2 1.772 0 3.2 1.428 3.2 3.2a3.19 3.19 0 0 1-3.2 3.2Zm0 0" style="fill-rule:evenodd;fill:rgb(18.431373%,71.372551%,48.627451%);fill-opacity:1;stroke-width:1.8518;stroke-linecap:round;stroke-linejoin:miter;stroke:rgb(18.431373%,71.372551%,48.627451%);stroke-opacity:1;stroke-miterlimit:4" transform="scale(.94118)"/><path d="M4.125 17.726h3.2v3.2c0 1.772-1.427 3.2-3.2 3.2a3.194 3.194 0 0 1-3.2-3.2c0-1.772 1.428-3.2 3.2-3.2Zm0 0" style="fill-rule:evenodd;fill:rgb(87.843138%,11.764706%,35.294119%);fill-opacity:1;stroke-width:1.8518;stroke-linecap:round;stroke-linejoin:miter;stroke:rgb(87.843138%,11.764706%,35.294119%);stroke-opacity:1;stroke-miterlimit:4" transform="scale(.94118)"/><path d="M16.124 4.125v3.2h-3.2a3.194 3.194 0 0 1-3.2-3.2c0-1.772 1.428-3.2 3.2-3.2a3.19 3.19 0 0 1 3.2 3.2Zm0 0" style="fill-rule:evenodd;fill:rgb(21.176471%,77.254903%,94.509804%);fill-opacity:1;stroke-width:1.8518;stroke-linecap:round;stroke-linejoin:miter;stroke:rgb(21.176471%,77.254903%,94.509804%);stroke-opacity:1;stroke-miterlimit:4" transform="scale(.94118)"/></svg>
